X: 1238
T: An Dro Marc D' Ailleurs
R: barndance
M: 4/4
K: Aminor
|:E|AB cd e2 e2|de dc B3 c|d2 B2 c2 A2|1 A/B/A ^GA B3:|2 A2 ^G2 A3||
|:B|E/F/E AB c2 c2|B/c/B dc B3 c|d2 A2 A2 ^GA|1 d2 cd e3|2 B2 ^G2 A3||

